data/wittgenstein.svg

<svg width="85.568" height="21" viewBox="0 0 85.568 21" xmlns="http://www.w3.org/2000/svg"><path transform="translate(0 14.91) scale(.014 -.014)" d="m351-10-259 677 23-22-115 35v20h183l219-580-10 1 111 294-4-32-119 283 25-21-116 35v20h176l90-228h-20l71 195 14-21-83 34v20h195v-19l-89-38 29 23-98-257-5 32 120-333-17-1 218 560 12-22-115 35v20h257v-19l-119-36 33 22-268-667-48-10-129 360h30l-140-350z"/><path transform="translate(14.616 14.91) scale(.014 -.014)" d="m20 0v20l111 35-17-23v419l18-20-122 14v16l186 55 10-6-2-76v-401l-17 24 111-37v-20zm120 601q-27 0-46 19t-19 45 19 45 46 19q26 0 44.5-19t18.5-45-18.5-45-44.5-19z"/><path transform="translate(18.928 14.91) scale(.014 -.014)" d="m192-15q-40 0-67 32t-27 82v381l19-18h-107v40h107l-19-18v113l88 63v-176l-18 18h162v-40h-162l18 18v-346q0-32 9-54.5t23-34 29-11.5q27 0 55 13t53 34l19-28q-32-30-83-49t-99-19z"/><path transform="translate(24.304 14.91) scale(.014 -.014)" d="m192-15q-40 0-67 32t-27 82v381l19-18h-107v40h107l-19-18v113l88 63v-176l-18 18h162v-40h-162l18 18v-346q0-32 9-54.5t23-34 29-11.5q27 0 55 13t53 34l19-28q-32-30-83-49t-99-19z"/><path transform="translate(29.68 14.91) scale(.014 -.014)" d="m264-216q-59 0-112 16.5t-86 46-33 67.5q0 32 20.5 65.5t47.5 60.5v-16q-25 17-41.5 45t-16.5 62q0 14 9.5 35.5t24.5 42 31 31.5l5-14q-19 23-29.5 52.5t-10.5 63.5q0 52 26.5 91t74 60.5 109.5 21.5q45 0 77-9t54-26l-32 5 182 12v-39l-9-8-139 8 15 7q20-19 30.5-45.5t10.5-58.5q0-56-23.5-99.5t-70-68.5-115.5-25q-41 0-79.5 13t-61.5 37l9 2q-4-6-10.5-20t-11.5-28.5-5-22.5q0-29 21.5-43t58.5-14h226q49 0 78-31.5t29-70.5q0-60-29.5-106.5t-86-73-137.5-26.5zm15 53q59 0 100.5 11.5t63 33.5 21.5 51q0 20-14.5 35t-41.5 23.5-65 8.5h-160q-19 0-37 4.5t-33 12.5l19 5q-19-22-34.5-38.5t-15.5-45.5q0-31 29-53.5t74-35 94-12.5zm-4 366q47 0 74 33.5t27 91.5q0 74-28 113t-84 39q-42 0-67-31t-25-91q0-73 25.5-114t77.5-41z"/><path transform="translate(37.73 14.91) scale(.014 -.014)" d="m269-13q-65 0-115 32t-78.5 88-28.5 128q0 82 29.5 145.5t81.5 100 119 36.5q58 0 100.5-27.5t66-76 23.5-112.5q0-7 0-14t-1-15h-342l18 16q-2-70 17-124.5t55.5-85.5 84.5-31q32 0 71 17t67 44l22-28q-19-27-50-48t-67-33-73-12zm-129 304-18 16 252 7-4-17q-1 55-17.5 95.5t-44 63-63.5 22.5q-32 0-56.5-23t-37.5-65-11-99z"/><path transform="translate(44.926 14.91) scale(.014 -.014)" d="m20 0v20l111 35-17-23v419l18-20-122 14v16l186 55 10-6-2-97-9 10q24 23 53 44t59.5 34.5 57.5 13.5q49 0 86-19t58-52.5 21-77.5v-334l-17 24 108-36v-20h-255v20l91 37-17-25v306q0 58-29.5 92t-76.5 34q-21 0-46-13.5t-49-34-44-42.5l9 27v-369l-17 25 93-37v-20z"/><path transform="translate(53.76 14.91) scale(.014 -.014)" d="m216-16q-43 0-89 14t-73 36l8 115h22l24-55q17-37 45.5-58.5t62.5-21.5q50 0 81 27t31 69q0 21-14.5 35.5t-38.5 26.5-53 23q-30 12-61 26.5t-56.5 35-41.5 50.5-16 73q0 40 21.5 70.5t60 48 87.5 17.5q42 0 81-10.5t63-24.5v-121h-23l-25 56q-15 33-40.5 51.5t-55.5 18.5q-43 0-71-24t-28-62q0-21 14-35.5t37.5-26 50.5-23.5q39-16 78-37t65-56 26-92q0-43-22-76t-60.5-51.5-89.5-18.5z"/><path transform="translate(59.85 14.91) scale(.014 -.014)" d="m192-15q-40 0-67 32t-27 82v381l19-18h-107v40h107l-19-18v113l88 63v-176l-18 18h162v-40h-162l18 18v-346q0-32 9-54.5t23-34 29-11.5q27 0 55 13t53 34l19-28q-32-30-83-49t-99-19z"/><path transform="translate(65.226 14.91) scale(.014 -.014)" d="m269-13q-65 0-115 32t-78.5 88-28.5 128q0 82 29.5 145.5t81.5 100 119 36.5q58 0 100.5-27.5t66-76 23.5-112.5q0-7 0-14t-1-15h-342l18 16q-2-70 17-124.5t55.5-85.5 84.5-31q32 0 71 17t67 44l22-28q-19-27-50-48t-67-33-73-12zm-129 304-18 16 252 7-4-17q-1 55-17.5 95.5t-44 63-63.5 22.5q-32 0-56.5-23t-37.5-65-11-99z"/><path transform="translate(72.422 14.91) scale(.014 -.014)" d="m20 0v20l111 35-17-23v419l18-20-122 14v16l186 55 10-6-2-76v-401l-17 24 111-37v-20zm120 601q-27 0-46 19t-19 45 19 45 46 19q26 0 44.5-19t18.5-45-18.5-45-44.5-19z"/><path transform="translate(76.734 14.91) scale(.014 -.014)" d="m20 0v20l111 35-17-23v419l18-20-122 14v16l186 55 10-6-2-97-9 10q24 23 53 44t59.5 34.5 57.5 13.5q49 0 86-19t58-52.5 21-77.5v-334l-17 24 108-36v-20h-255v20l91 37-17-25v306q0 58-29.5 92t-76.5 34q-21 0-46-13.5t-49-34-44-42.5l9 27v-369l-17 25 93-37v-20z"/></svg>

<?xml version="1.0" encoding="utf-8" ?>
<svg baseProfile="tiny" height="100%" version="1.2" width="100%" xmlns="http://www.w3.org/2000/svg" xmlns:ev="http://www.w3.org/2001/xml-events" xmlns:xlink="http://www.w3.org/1999/xlink"><defs /><g><path d="M351 -10 92 667 115 645 0 680V700H183L402 120L392 121L503 415L499 383L380 666L405 645L289 680V700H465L555 472H535L606 667L620 646L537 680V700H732V681L643 643L672 666L574 409L569 441L689 108L672 107L890 667L902 645L787 680V700H1044V681L925 645L958 667L690 0L642 -10L513 350H543L403 0Z" transform="translate(0.0, 72) scale(0.072, -0.072)" /><path d="M20 0V20L131 55L114 32V451L132 431L10 445V461L196 516L206 510L204 434V33L187 57L298 20V0ZM140 601Q113 601 94.0 620.0Q75 639 75 665Q75 691 94.0 710.0Q113 729 140 729Q166 729 184.5 710.0Q203 691 203 665Q203 639 184.5 620.0Q166 601 140 601Z" transform="translate(75.16799999999999, 72) scale(0.072, -0.072)" /><path d="M192 -15Q152 -15 125.0 17.0Q98 49 98 99V480L117 462H10V502H117L98 484V597L186 660V484L168 502H330V462H168L186 480V134Q186 102 195.0 79.5Q204 57 218.0 45.5Q232 34 247 34Q274 34 302.0 47.0Q330 60 355 81L374 53Q342 23 291.0 4.0Q240 -15 192 -15Z" transform="translate(97.344, 72) scale(0.072, -0.072)" /><path d="M192 -15Q152 -15 125.0 17.0Q98 49 98 99V480L117 462H10V502H117L98 484V597L186 660V484L168 502H330V462H168L186 480V134Q186 102 195.0 79.5Q204 57 218.0 45.5Q232 34 247 34Q274 34 302.0 47.0Q330 60 355 81L374 53Q342 23 291.0 4.0Q240 -15 192 -15Z" transform="translate(124.99199999999999, 72) scale(0.072, -0.072)" /><path d="M264 -216Q205 -216 152.0 -199.5Q99 -183 66.0 -153.5Q33 -124 33 -86Q33 -54 53.5 -20.5Q74 13 101 40V24Q76 41 59.5 69.0Q43 97 43 131Q43 145 52.5 166.5Q62 188 77.0 208.5Q92 229 108 240L113 226Q94 249 83.5 278.5Q73 308 73 342Q73 394 99.5 433.0Q126 472 173.5 493.5Q221 515 283 515Q328 515 360.0 506.0Q392 497 414 480L382 485L564 497V458L555 450L416 458L431 465Q451 446 461.5 419.5Q472 393 472 361Q472 305 448.5 261.5Q425 218 378.5 193.0Q332 168 263 168Q222 168 183.5 181.0Q145 194 122 218L131 220Q127 214 120.5 200.0Q114 186 109.0 171.5Q104 157 104 149Q104 120 125.5 106.0Q147 92 184 92H410Q459 92 488.0 60.5Q517 29 517 -10Q517 -70 487.5 -116.5Q458 -163 401.5 -189.5Q345 -216 264 -216ZM279 -163Q338 -163 379.5 -151.5Q421 -140 442.5 -118.0Q464 -96 464 -67Q464 -47 449.5 -32.0Q435 -17 408.0 -8.5Q381 0 343 0H183Q164 0 146.0 4.5Q128 9 113 17L132 22Q113 0 97.5 -16.5Q82 -33 82 -62Q82 -93 111.0 -115.5Q140 -138 185.0 -150.5Q230 -163 279 -163ZM275 203Q322 203 349.0 236.5Q376 270 376 328Q376 402 348.0 441.0Q320 480 264 480Q222 480 197.0 449.0Q172 418 172 358Q172 285 197.5 244.0Q223 203 275 203Z" transform="translate(152.64, 72) scale(0.072, -0.072)" /><path d="M269 -13Q204 -13 154.0 19.0Q104 51 75.5 107.0Q47 163 47 235Q47 317 76.5 380.5Q106 444 158.0 480.5Q210 517 277 517Q335 517 377.5 489.5Q420 462 443.5 413.5Q467 365 467 301Q467 294 467.0 287.0Q467 280 466 272H124L142 288Q140 218 159.0 163.5Q178 109 214.5 78.0Q251 47 299 47Q331 47 370.0 64.0Q409 81 437 108L459 80Q440 53 409.0 32.0Q378 11 342.0 -1.0Q306 -13 269 -13ZM140 291 122 307 374 314 370 297Q369 352 352.5 392.5Q336 433 308.5 455.5Q281 478 245 478Q213 478 188.5 455.0Q164 432 151.0 390.0Q138 348 140 291Z" transform="translate(194.04, 72) scale(0.072, -0.072)" /><path d="M20 0V20L131 55L114 32V451L132 431L10 445V461L196 516L206 510L204 413L195 423Q219 446 248.0 467.0Q277 488 307.5 501.5Q338 515 365 515Q414 515 451.0 496.0Q488 477 509.0 443.5Q530 410 530 366V32L513 56L621 20V0H366V20L457 57L440 32V338Q440 396 410.5 430.0Q381 464 334 464Q313 464 288.0 450.5Q263 437 239.0 416.5Q215 396 195 374L204 401V32L187 57L280 20V0Z" transform="translate(231.048, 72) scale(0.072, -0.072)" /><path d="M216 -16Q173 -16 127.0 -2.0Q81 12 54 34L62 149H84L108 94Q125 57 153.5 35.5Q182 14 216 14Q266 14 297.0 41.0Q328 68 328 110Q328 131 313.5 145.5Q299 160 275.0 172.0Q251 184 222 195Q192 207 161.0 221.5Q130 236 104.5 256.5Q79 277 63.0 307.0Q47 337 47 380Q47 420 68.5 450.5Q90 481 128.5 498.5Q167 516 216 516Q258 516 297.0 505.5Q336 495 360 481V360H337L312 416Q297 449 271.5 467.5Q246 486 216 486Q173 486 145.0 462.0Q117 438 117 400Q117 379 131.0 364.5Q145 350 168.5 338.5Q192 327 219 315Q258 299 297.0 278.0Q336 257 362.0 222.0Q388 187 388 130Q388 87 366.0 54.0Q344 21 305.5 2.5Q267 -16 216 -16Z" transform="translate(276.48, 72) scale(0.072, -0.072)" /><path d="M192 -15Q152 -15 125.0 17.0Q98 49 98 99V480L117 462H10V502H117L98 484V597L186 660V484L168 502H330V462H168L186 480V134Q186 102 195.0 79.5Q204 57 218.0 45.5Q232 34 247 34Q274 34 302.0 47.0Q330 60 355 81L374 53Q342 23 291.0 4.0Q240 -15 192 -15Z" transform="translate(307.8, 72) scale(0.072, -0.072)" /><path d="M269 -13Q204 -13 154.0 19.0Q104 51 75.5 107.0Q47 163 47 235Q47 317 76.5 380.5Q106 444 158.0 480.5Q210 517 277 517Q335 517 377.5 489.5Q420 462 443.5 413.5Q467 365 467 301Q467 294 467.0 287.0Q467 280 466 272H124L142 288Q140 218 159.0 163.5Q178 109 214.5 78.0Q251 47 299 47Q331 47 370.0 64.0Q409 81 437 108L459 80Q440 53 409.0 32.0Q378 11 342.0 -1.0Q306 -13 269 -13ZM140 291 122 307 374 314 370 297Q369 352 352.5 392.5Q336 433 308.5 455.5Q281 478 245 478Q213 478 188.5 455.0Q164 432 151.0 390.0Q138 348 140 291Z" transform="translate(335.448, 72) scale(0.072, -0.072)" /><path d="M20 0V20L131 55L114 32V451L132 431L10 445V461L196 516L206 510L204 434V33L187 57L298 20V0ZM140 601Q113 601 94.0 620.0Q75 639 75 665Q75 691 94.0 710.0Q113 729 140 729Q166 729 184.5 710.0Q203 691 203 665Q203 639 184.5 620.0Q166 601 140 601Z" transform="translate(372.45599999999996, 72) scale(0.072, -0.072)" /><path d="M20 0V20L131 55L114 32V451L132 431L10 445V461L196 516L206 510L204 413L195 423Q219 446 248.0 467.0Q277 488 307.5 501.5Q338 515 365 515Q414 515 451.0 496.0Q488 477 509.0 443.5Q530 410 530 366V32L513 56L621 20V0H366V20L457 57L440 32V338Q440 396 410.5 430.0Q381 464 334 464Q313 464 288.0 450.5Q263 437 239.0 416.5Q215 396 195 374L204 401V32L187 57L280 20V0Z" transform="translate(394.63199999999995, 72) scale(0.072, -0.072)" /></g></svg>
